X: 25545
T: Marig Ar Polanton
R: barndance
M: 4/4
K: Gminor
V:1
D2|F4 D (C2 B,)|D B,4 FGA/B/-|B6 (G3/A//G//)|F6 z2|
z2 z2 z2 z2|z2 z2 z2 z2|z2 z2 z2 z2|z2 z2 z2 D2|
E4 D E2 F|(GF3) D (C2 B,)|D6 F2|D C4 z z2|
Z|z4 D C2 B,|D6 (C>D/C//)|B,6||
V:2
D2|F4 D C2 B,|D B,4 F GF/B/-|B6 G>>G|F6 D2|
F4 D C2 B,|D B,4 F ED/C/-|C6 B,2|F6 D2|
F4 D E2 F|G F3 D C2 B,|D6 F2|EC-C4 D2|
E4 D E2 F|G F3 D C2 B,|D6 C2|B,6||

